X:476
T: Jijiehua zhongtian zhenshihao
N: C2095
O: China, Shanxi Dingxian
S: I, 290]
N: Han
R: Xiaodiao]
M: 2/4
L: 1/16
K: F
G3AG2D2 | C6D2 | G3AG2D2 | C8
G2B2c4 | f2B4G2 | F3AG2D2 | C8
G2A2G2GF | GGGDC4 | G2A2G2GF | GGGDC4
GAGFD2F2 | G8
G2B2c4 | f2B4G2 | F2G2D2C2 | c4B2G2 | F2GAG2D2 | C8

